packages/calcite-ui-icons/icons/coded-value-domain-24.svg

<?xml version="1.0" encoding="UTF-8"?><svg id="icons" xmlns="http://www.w3.org/2000/svg" viewBox="0 0 24 24"><defs><style>.cls-1{fill:none;}</style></defs><path d="M23,4.5v16c0,.82843-.67157,1.5-1.5,1.5h-2.5v-1h2.5c.27588,0,.5-.22461.5-.5V4.5c0-.27539-.22412-.5-.5-.5h-2.5v-1h2.5c.82843,0,1.5.67157,1.5,1.5ZM5,21h-2.5c-.27588,0-.5-.22461-.5-.5V4.5c0-.27539.22412-.5.5-.5h2.5v-1h-2.5c-.82843,0-1.5.67157-1.5,1.5v16c0,.82843.67157,1.5,1.5,1.5h2.5v-1ZM20,7H4v1h16v-1ZM20,10H4v1h16v-1ZM20,13H4v1h16v-1ZM20,16H4v1h16v-1Z"/><rect class="cls-1" width="24" height="24"/></svg>

<svg xmlns="http://www.w3.org/2000/svg" viewBox="0 0 24 24"><path d="M23 4.5v16a1.5 1.5 0 0 1-1.5 1.5H19v-1h2.5a.5.5 0 0 0 .5-.5v-16a.5.5 0 0 0-.5-.5H19V3h2.5A1.5 1.5 0 0 1 23 4.5M5 21H2.5a.5.5 0 0 1-.5-.5v-16a.5.5 0 0 1 .5-.5H5V3H2.5A1.5 1.5 0 0 0 1 4.5v16A1.5 1.5 0 0 0 2.5 22H5zM20 7H4v1h16zm0 3H4v1h16zm0 3H4v1h16zm0 3H4v1h16z"/><path d="M0 0h24v24H0z" style="fill:none"/></svg>
